assets/img/screen.svg

<svg fill="none" height="560" viewBox="0 0 300 560" width="300" xmlns="http://www.w3.org/2000/svg" xmlns:xlink="http://www.w3.org/1999/xlink"><clipPath id="a"><path d="m0 0h300v560h-300z"/></clipPath><g clip-path="url(#a)"><path d="m0 0h300v560h-300z" fill="#28304e"/><path d="m301-.5h-232c0 9.2 54.5 30.5 90.5 38.5 30.237 6.7193 68 47.3 66 94.5s49.5 44.667 75.5 37.5z" fill="#00b1cb"/><path d="m-1 560.5v-128.5-107c19.4157 14.306 47.2146 49.16 87.5 56.5 31.99 5.829 74.809-11.473 106.5-29 71.6-39.6 102.5 36.5 109 79.5v128.5z" fill="#f0898c"/></g></svg>

<svg width="300" height="560" viewBox="0 0 300 560" fill="none" xmlns="http://www.w3.org/2000/svg">
<g clip-path="url(#clip0)">
<rect width="300" height="560" fill="#28304E"/>
<path d="M301 -0.5H69C69 8.7 123.5 30 159.5 38C189.737 44.7193 227.5 85.3 225.5 132.5C223.5 179.7 275 177.167 301 170V-0.5Z" fill="#00B1CB"/>
<path d="M-1 560.5V432V325C18.4157 339.306 46.2146 374.16 86.5 381.5C118.49 387.329 161.309 370.027 193 352.5C264.6 312.9 295.5 389 302 432V560.5H-1Z" fill="#F0898C"/>
</g>
<defs>
<clipPath id="clip0">
<rect width="300" height="560" fill="white"/>
</clipPath>
</defs>
</svg>
